!!!OTL: Es ist nichts lust'ger in der Welt. Husarenlied.
!!!OTL-incipit: ES IST NICHTS LUSTGER AUF DER WELT
!!!COM: Volksweise
!!!ARE: Europa, Mitteleuropa, Deutschland
!!!SCT: F0611
!!!TXL: @@DE
!!!YEM: Copyright 1995, estate of Helmut Schaffrath.
**kern	**text
*ICvox	*
*clefG2	*
*M6/8	*
*k[b-]	*
*F:	*
!LO:TX:a:t=Munter.	!
!LO:TX:a:t=P:only the highest voice encoded:problem	!
{8cc	1._Es
=1	=1
4a	iſt
8a	nichts
8aL	luſt'-
8b-J	.
8cc/	-ger
=2	=2
4f	in
8f	der
4f}	Welt
{8a	und
=3	=3
4g	auch
8g	nichts
8gL	ſo
8aJ	.
8b-/	ge-
=4	=4
(>4.b-/	-ſchwind,
8a)	.
8r}	.
{8a	als
=5	=5
4g	wir
8cc/	Hu-
4cc/	-ſa-
8cc/	-ren
=6	=6
4bn	in
8dd	dem
4ff}	Feld,
{8ff	wenn
=7	=7
4ee	wir
8cc	bei
8dd/L	Schlachten
8ccJ	.
8bn/	.
=8	=8
4.cc/	ſind.
4r}	.
{8ee/	Wenn's
=9	=9
4ff	blitʒt
8cc/	und
4a	kracht
8f	und
=10	=10
4dd	donnert
8dd	.
4dd}	gleich,
{8dd	wir
=11	=11
4cc/	ſchießen
8cc/	.
8cc/L	ro-
8b-J	.
8a	-ſen
=12	=12
(>4.a	roth,
8g)	.
8r}	.
{8g	wenn's
=13	=13
4b-/	Blut
8b-/	uns
4a	in
8f	die
=14	=14
8ff/L	Au-
8eeJ	.
8dd/	-gen
8cc/	läuft,
8r}	.
{8b-/	wir
=15	=15
4a	reiten
8a	.
4cc/	durch
8cc/	den
=16	=16
8a	Tod,
8r	.
8r}	.
{4.dd/	wir
=17	=17
4cc/	reiten
8a	.
4cc/	durch
8cc/	den
=18	=18
8f	Tod.
8r	.
8r	.
4r}	.
==	==
!!!AGN: Soldaten - Lied
!!!ONB: ESAC (Essen Associative Code) Database: FINK
!!!AMT: compound duple
!!!AIN: vox
!!!EED: Helmut Schaffrath
!!!EEV: 1.0
!!!GTL: Soldaten- und Jaegerlieder
!!Text: Volkslied
!!!source: Musikalischer Hausschatz der Deutschen. Eine Sammlung von über 1000 Liedern und Gesängen mit Singstimmen und Klavierbegleitung. Leipzig, Litterarisches Verlags-Haus.
!!!page: 400
!!!URL-scan: https://www.digitale-sammlungen.de/en/view/bsb11144622?page=375
!!!ENC: Anna Maria Matuszewska
!!!EEV: 2024/08/02
*-	*-